!! 00000] TT[WS
!!!OTL: Chashan qingge
!!!ARE: Asia, China, Shanxi Qinyuan
!! Ethnic Group: Han
!! WII, 60 (1)
!!!SCT: J0486
!!!YEM: Copyright 1995, estate of Helmut Schaffrath.
**kern
*ICvox
*Ivox
*M2/4
*k[]
*C:
{8cc
8cc
8g
8g
=1
16a
16dd
16cc
16a
4g
=2
8g
8cc
8a
8f
=3
8.d
16f
4g}
=4
{8g
16a
16a
8cc
8ee
=5
8dd
16ee
16cc
4dd
=6
8a
8g
8cc
8ee
=7
8dd
8ee
8a
8cc
=8
2g}
==
!!!AGN: Xiaodiao. Qingge, Sichun
!!!ONB: ESAC (Essen Associative Code) Database: CHINA
!!!AMT: simple duple
!!!AIN: vox
!!!EED: Helmut Schaffrath
!!!EEV: 1.0
*-
